!!!OTL: ADE ZUR GUTEN NACHT
!!!ARE: Europa, Mitteleuropa, Deutschland, Sachsen; Franken; Rheinpfalz
!!!SCT: E0768
!!!YEM: Copyright 1995, estate of Helmut Schaffrath.
**kern
*ICvox
*Ivox
*M2/4
*k[f#]
*G:
{8d
=1
4g
8a
8cc
=2
8b
16b
16a
8g}
{8a
=3
4b
8cc
8ee
=4
8dd
16dd
16cc
8b}
{8dd
=5
8dd
16cc
16b
8cc
8dd
=6
4b
8r}
{8dd
=7
4b
4dd
=8
8ee
16ee
16dd
8cc}
{8b
=9
4a
4cc
=10
8dd
16dd
16cc
8b}
{8dd
=11
8dd
16cc
16b
8cc
8dd
=12
4b
8r}
{8dd
=13
4b
4dd
=14
8ee
16ee
16dd
8cc}
{8b
=15
4a
4cc
=16
8dd
16dd
16cc
8b}
{8dd
=17
8dd
16cc
16b
8cc
8dd
=18
4b
8r}
==
!!!AGN: Abschieds - Lied, Liebe
!!!ONB: ESAC (Essen Associative Code) Database: ERK2
!!!AMT: simple duple
!!!AIN: vox
!!!EED: Helmut Schaffrath
!!!EEV: 1.0
*-
